X: 1131
T: The Famous Ballymote
B: sean kenan irish music
M:4/4
Q: 1/4=130
K:Dmixolydian
V:1 
|:"D"FDAD FA (3AAA |"C"cABG EFGE|"D"FDAD FA (3AAA |"C"cAGE "D"ED D2:|
|: "D"FDFA d2ed|"C"cABG EFGE|"D"FDFA dfed|"C"cAGE "D"ED D2:|
% abcbook-tune_id 629b934f002b14aa34638a03


% abcbook-boost 0
% abcbook-tablature 
% abcbook-transpose 
% abcbook-lastupdated 1665415781401
% abcbook-soundfonts 
% abcbook-repeats 1


